src/icons/file-gradle.svg

<svg xmlns="http://www.w3.org/2000/svg" width="16" height="16" version="1.2"><path fill-rule="evenodd" d="M16 1.4v.8c0 2.9-2.1 5.2-5 5.3v6.9c0 .3-.2.4-.5.4l-2.56-.029v-1.9c0-.3-.3-.5-.6-.5s-.5.3-.5.5v2L4 14.9v-2c0-.3-.2-.5-.5-.5s-.5.3-.5.5v1.9l-2.5.1c-.3.012-.5-.2-.5-.5V9.7c0-1.9 1.2-3.5 2.8-4.1q0 .2-.1.6c-.1 1 .4 2.1 1.1 2.9.7.6 1.6 1 2.5 1h.2c1 0 1.9-.4 2.6-1.1.2-.2.2-.6 0-.7-.2-.2-.5-.2-.7 0-.5.5-1.2.8-2 .8-.7.1-1.4-.2-1.9-.7-.6-.6-.9-1.4-.8-2.2q.1-1 .8-1.5l.8-.7h6.3C13 4 14 2.7 14 1.5c0-.3.2-.5.5-.5h1c.3 0 .5.2.5.4" style="fill:#5bafd4"/></svg>

<?xml version="1.0" encoding="UTF-8" standalone="no"?>
<svg
   version="1.2"
   viewBox="0 0 16 16"
   width="16"
   height="16"
   id="svg1"
   xmlns="http://www.w3.org/2000/svg"
   xmlns:svg="http://www.w3.org/2000/svg">
  <defs
     id="defs1" />
  <title
     id="title1">gradle-svg</title>
  <style
     id="style1">
		.s0 { fill: #5bafd4 } 
	</style>
  <g
     id="Layer 1">
    <path
       fill-rule="evenodd"
       class="s0"
       d="m 16,1.4 v 0.8 c 0,2.9 -2.1,5.2 -5,5.3 v 6.9 c 0,0.3 -0.2,0.4 -0.5,0.4 L 7.9405797,14.77101 v -1.9 c 0,-0.3 -0.3,-0.5 -0.6,-0.5 -0.3,0 -0.5,0.3 -0.5,0.5 v 2 L 4,14.9 v -2 C 4,12.6 3.8,12.4 3.5,12.4 3.2,12.4 3,12.7 3,12.9 v 1.5 0.4 L 0.5,14.9 C 0.20023971,14.91199 0,14.7 0,14.4 V 9.7 C 0,7.8 1.2,6.2 2.8,5.6 c 0,0.1333333 -0.033333,0.3333333 -0.1,0.6 -0.1,1 0.4,2.1 1.1,2.9 0.7,0.6 1.6,1 2.5,1 H 6.5 C 7.5,10.1 8.4,9.7 9.1,9 9.3,8.8 9.3,8.4 9.1,8.3 8.9,8.1 8.6,8.1 8.4,8.3 7.9,8.8 7.2,9.1 6.4,9.1 5.7,9.2 5,8.9 4.5,8.4 3.9,7.8 3.6,7 3.7,6.2 3.7666667,5.5333333 4.0333333,5.0333333 4.5,4.7 L 5.3,4 h 6.3 C 13,4 14,2.7 14,1.5 14,1.2 14.2,1 14.5,1 h 1 C 15.8,1 16,1.2 16,1.4 Z"
       id="path1" />
  </g>
</svg>
